icons/1_Primary/DNSimple.svg

<svg width="1024" height="1024" fill="none" xmlns="http://www.w3.org/2000/svg"><g clip-path="url(#a)"><path d="M512 1024c282.77 0 512-229.23 512-512S794.77 0 512 0 0 229.23 0 512s229.23 512 512 512Z" fill="#728DBE"/><path d="M206.37 432.83c-3.592-.056-7.18.28-10.7 1v35.64c-5-1.92-10.7-2.87-18.35-2.87-27.15-.05-49.32 18.53-49.32 48.4 0 30.65 20.26 47.51 50.08 47.51 14.72 0 29.82-4 39.18-9V433.79a53.596 53.596 0 0 0-10.9-1l.01.04Zm-27.2 112.84c-16.36 0-27.59-11.32-27.59-29.47 0-18 12-29.47 28-29.47 6.47 0 12.37.78 17.5 4.1v51.91a45.988 45.988 0 0 1-17.89 2.93h-.02Zm107-79.15c-19.6 0-35.55 7.65-43.62 14.35v79a62.041 62.041 0 0 0 21.71 0v-68.5c4.23-2.49 11.72-5 20.18-5 14 0 22.1 6.31 22.1 23v50.52a63.132 63.132 0 0 0 21.91 0v-55.68c0-20.86-12.87-37.7-42.27-37.7l-.01.01Zm98.57 96c25.05 0 39.7-11.45 39.7-30.35 0-17.94-14.45-24.62-34.3-27.68-15.61-2.48-19.66-5.34-19.66-11.26 0-5.73 5-9.35 16.57-9.35a55.067 55.067 0 0 1 26.79 6.87c4.43-3.44 7.32-8.78 8.29-15.46-6-4.2-17.73-8.78-34.3-8.78-23.13 0-38.35 11.45-38.35 28.25 0 19.09 15.42 25 31.61 27.49 16.38 2.48 21.58 5.92 21.58 12s-4.63 10.88-17.54 10.88c-14.45 0-22.55-5-28.14-9-4.63 2.86-8.29 8-10 14.89 5.2 4.39 17.34 11.45 37.77 11.45l-.02.05Zm69.37-106.12a14.319 14.319 0 1 0-12.109-22.255 14.317 14.317 0 0 0-2.401 7.935 14.3 14.3 0 0 0 4.252 10.203 14.299 14.299 0 0 0 10.258 4.117ZM454 560.85c3.642.057 7.28-.278 10.85-1v-90.69a51.928 51.928 0 0 0-10.85-1 53.788 53.788 0 0 0-11 1v90.73a54.797 54.797 0 0 0 11 1v-.04Zm140.76-94.33A53.014 53.014 0 0 0 563.5 477c-6.8-6.51-16.89-10.52-30.09-10.52-19.22 0-35.92 8-43.3 14.35v79a63.353 63.353 0 0 0 21.94 0v-68.5a38.005 38.005 0 0 1 18.83-5c15 0 20.58 9.38 20.58 22.39v51.09a54.752 54.752 0 0 0 11.26 1 52.117 52.117 0 0 0 10.87-1V502.3a39.983 39.983 0 0 0-1-8.42c4.47-3.64 10.68-7.46 19.61-7.46 15 0 20.77 9.38 20.77 22.39v51.09a63.353 63.353 0 0 0 21.94 0v-57.6c0-19.71-13.59-35.78-40.19-35.78h.04Zm104.19 0c-17.24 0-31.61 6.71-40.42 14v114.75a53.713 53.713 0 0 0 10.92 1c3.602.057 7.2-.278 10.73-1V560c5.75 1.92 11.88 2.68 19.54 2.68 25.28 0 48.08-17.82 48.08-48.47 0-31.42-21.07-47.71-48.85-47.71v.02Zm-4 77.49c-7 0-12.75-1.16-17.89-3.66v-49.18a35.51 35.51 0 0 1 17.69-4.44c16.55 0 27.78 10.61 27.78 28.15 0 18.12-11.23 29.12-27.59 29.12l.01.01Zm83.17 16.85a59.689 59.689 0 0 0 11.79-1V433.79a63.268 63.268 0 0 0-12-1 57.735 57.735 0 0 0-11.58 1v126.1a63.664 63.664 0 0 0 11.79 1v-.03ZM896 507.45c0-24.29-17.32-40.93-41.77-40.93-26 0-45.81 20.27-45.81 48.39 0 29.65 19.63 47.63 47 47.63 18.29 0 30.22-6.69 37.92-12.82a22.387 22.387 0 0 0-9.47-14.72c-6 4.21-13.67 9.37-26.95 9.37-15.21 0-24.45-9.18-26.18-24.1h64.48c.539-4.251.796-8.534.77-12.82h.01Zm-65.68-.5c1.54-12.49 9.84-21.9 23.34-21.9 14.85.19 20.45 11.14 20.45 21.9h-43.79Z" fill="#fff"/></g><defs><clipPath id="a"><path fill="#fff" d="M0 0h1024v1024H0z"/></clipPath></defs></svg>

<svg width="1024" height="1024" viewBox="0 0 1024 1024" fill="none" xmlns="http://www.w3.org/2000/svg">
<g clip-path="url(#clip0_2_2040)">
<path d="M512 1024C794.77 1024 1024 794.77 1024 512C1024 229.23 794.77 0 512 0C229.23 0 0 229.23 0 512C0 794.77 229.23 1024 512 1024Z" fill="#728DBE"/>
<path d="M206.37 432.83C202.778 432.774 199.19 433.11 195.67 433.83V469.47C190.67 467.55 184.97 466.6 177.32 466.6C150.17 466.55 128 485.13 128 515C128 545.65 148.26 562.51 178.08 562.51C192.8 562.51 207.9 558.51 217.26 553.51V433.79C213.67 433.086 210.018 432.75 206.36 432.79L206.37 432.83ZM179.17 545.67C162.81 545.67 151.58 534.35 151.58 516.2C151.58 498.2 163.58 486.73 179.58 486.73C186.05 486.73 191.95 487.51 197.08 490.83V542.74C191.37 544.894 185.289 545.89 179.19 545.67H179.17ZM286.17 466.52C266.57 466.52 250.62 474.17 242.55 480.87V559.87C249.73 561.146 257.08 561.146 264.26 559.87V491.37C268.49 488.88 275.98 486.37 284.44 486.37C298.44 486.37 306.54 492.68 306.54 509.37V559.89C313.788 561.167 321.202 561.167 328.45 559.89V504.21C328.45 483.35 315.58 466.51 286.18 466.51L286.17 466.52ZM384.74 562.52C409.79 562.52 424.44 551.07 424.44 532.17C424.44 514.23 409.99 507.55 390.14 504.49C374.53 502.01 370.48 499.15 370.48 493.23C370.48 487.5 375.48 483.88 387.05 483.88C396.419 483.854 405.64 486.218 413.84 490.75C418.27 487.31 421.16 481.97 422.13 475.29C416.13 471.09 404.4 466.51 387.83 466.51C364.7 466.51 349.48 477.96 349.48 494.76C349.48 513.85 364.9 519.76 381.09 522.25C397.47 524.73 402.67 528.17 402.67 534.25C402.67 540.33 398.04 545.13 385.13 545.13C370.68 545.13 362.58 540.13 356.99 536.13C352.36 538.99 348.7 544.13 346.99 551.02C352.19 555.41 364.33 562.47 384.76 562.47L384.74 562.52ZM454.11 456.4C456.934 456.363 459.684 455.491 462.013 453.895C464.343 452.299 466.149 450.05 467.204 447.43C468.258 444.81 468.515 441.937 467.941 439.172C467.367 436.407 465.989 433.873 463.979 431.889C461.969 429.906 459.417 428.561 456.645 428.023C453.872 427.486 451.003 427.78 448.397 428.87C445.791 429.959 443.566 431.794 442.001 434.145C440.436 436.495 439.6 439.256 439.6 442.08C439.596 443.978 439.97 445.858 440.7 447.61C441.43 449.361 442.501 450.95 443.852 452.283C445.203 453.616 446.806 454.667 448.567 455.374C450.328 456.081 452.212 456.43 454.11 456.4ZM454 560.85C457.642 560.907 461.28 560.572 464.85 559.85V469.16C461.278 468.447 457.642 468.112 454 468.16C450.309 468.115 446.623 468.45 443 469.16V559.89C446.624 560.593 450.309 560.928 454 560.89V560.85ZM594.76 466.52C583.491 466.602 572.541 470.273 563.5 477C556.7 470.49 546.61 466.48 533.41 466.48C514.19 466.48 497.49 474.48 490.11 480.83V559.83C497.368 561.106 504.792 561.106 512.05 559.83V491.33C517.785 488.056 524.275 486.332 530.88 486.33C545.88 486.33 551.46 495.71 551.46 508.72V559.81C555.169 560.531 558.942 560.866 562.72 560.81C566.368 560.858 570.012 560.523 573.59 559.81V502.3C573.556 499.466 573.221 496.644 572.59 493.88C577.06 490.24 583.27 486.42 592.2 486.42C607.2 486.42 612.97 495.8 612.97 508.81V559.9C620.228 561.176 627.652 561.176 634.91 559.9V502.3C634.91 482.59 621.32 466.52 594.72 466.52H594.76ZM698.95 466.52C681.71 466.52 667.34 473.23 658.53 480.52V595.27C662.126 595.975 665.785 596.31 669.45 596.27C673.052 596.327 676.65 595.992 680.18 595.27V560C685.93 561.92 692.06 562.68 699.72 562.68C725 562.68 747.8 544.86 747.8 514.21C747.8 482.79 726.73 466.5 698.95 466.5V466.52ZM694.95 544.01C687.95 544.01 682.2 542.85 677.06 540.35V491.17C682.469 488.175 688.567 486.645 694.75 486.73C711.3 486.73 722.53 497.34 722.53 514.88C722.53 533 711.3 544 694.94 544L694.95 544.01ZM778.12 560.86C782.073 560.918 786.023 560.583 789.91 559.86V433.79C785.951 433.076 781.933 432.741 777.91 432.79C774.026 432.733 770.146 433.068 766.33 433.79V559.89C770.221 560.589 774.167 560.923 778.12 560.89V560.86ZM896 507.45C896 483.16 878.68 466.52 854.23 466.52C828.23 466.52 808.42 486.79 808.42 514.91C808.42 544.56 828.05 562.54 855.42 562.54C873.71 562.54 885.64 555.85 893.34 549.72C892.831 546.756 891.731 543.925 890.104 541.396C888.477 538.867 886.357 536.692 883.87 535C877.87 539.21 870.2 544.37 856.92 544.37C841.71 544.37 832.47 535.19 830.74 520.27H895.22C895.759 516.019 896.016 511.736 895.99 507.45H896ZM830.32 506.95C831.86 494.46 840.16 485.05 853.66 485.05C868.51 485.24 874.11 496.19 874.11 506.95H830.32Z" fill="white"/>
</g>
<defs>
<clipPath id="clip0_2_2040">
<rect width="1024" height="1024" fill="white"/>
</clipPath>
</defs>
</svg>
